packages/bezier-icons/icons/inbox.svg

<svg width="24" height="24" viewBox="0 0 24 24" fill="none" xmlns="http://www.w3.org/2000/svg">
<path fill-rule="evenodd" clip-rule="evenodd" d="M6 4C3.79086 4 2 5.79086 2 8V16C2 18.2091 3.79086 20 6 20H18C20.2091 20 22 18.2091 22 16V8C22 5.79086 20.2091 4 18 4H6ZM20 8C20 6.89543 19.1046 6 18 6H6C4.89543 6 4 6.89543 4 8V11C4 11.5523 4.44772 12 5 12H8C8.55228 12 8.98368 12.46 9.16434 12.9819C9.57097 14.1566 10.6869 15 12 15C13.3131 15 14.429 14.1566 14.8357 12.9819C15.0163 12.46 15.4477 12 16 12H19C19.5523 12 20 11.5523 20 11V8Z" fill="#313234"/>
</svg>

<svg xmlns="http://www.w3.org/2000/svg" width="24" height="24" fill="none" viewBox="0 0 24 24"><path fill="#313234" fill-rule="evenodd" d="M6 4a4 4 0 0 0-4 4v8a4 4 0 0 0 4 4h12a4 4 0 0 0 4-4V8a4 4 0 0 0-4-4zm14 4a2 2 0 0 0-2-2H6a2 2 0 0 0-2 2v3a1 1 0 0 0 1 1h3c.552 0 .984.46 1.164.982a3.001 3.001 0 0 0 5.672 0c.18-.522.612-.982 1.164-.982h3a1 1 0 0 0 1-1z" clip-rule="evenodd"/></svg>
